neru-dark-classic/22x22/devices/input-gaming.svg

<?xml version="1.0" encoding="UTF-8" standalone="no"?>
<svg
   xmlns:dc="http://purl.org/dc/elements/1.1/"
   xmlns:cc="http://creativecommons.org/ns#"
   xmlns:rdf="http://www.w3.org/1999/02/22-rdf-syntax-ns#"
   xmlns:svg="http://www.w3.org/2000/svg"
   xmlns="http://www.w3.org/2000/svg"
   xmlns:sodipodi="http://sodipodi.sourceforge.net/DTD/sodipodi-0.dtd"
   xmlns:inkscape="http://www.inkscape.org/namespaces/inkscape"
   width="22"
   height="22"
   viewBox="0 0 16 16"
   version="1.1"
   id="svg7"
   sodipodi:docname="input-gaming.svg"
   inkscape:version="0.92.1 r">
  <metadata
     id="metadata11">
    <rdf:RDF>
      <cc:Work
         rdf:about="">
        <dc:format>image/svg+xml</dc:format>
        <dc:type
           rdf:resource="http://purl.org/dc/dcmitype/StillImage" />
      </cc:Work>
    </rdf:RDF>
  </metadata>
  <sodipodi:namedview
     pagecolor="#ffffff"
     bordercolor="#666666"
     borderopacity="1"
     objecttolerance="10"
     gridtolerance="10"
     guidetolerance="10"
     inkscape:pageopacity="0"
     inkscape:pageshadow="2"
     inkscape:window-width="769"
     inkscape:window-height="480"
     id="namedview9"
     showgrid="false"
     inkscape:zoom="10.727273"
     inkscape:cx="11"
     inkscape:cy="11"
     inkscape:window-x="0"
     inkscape:window-y="0"
     inkscape:window-maximized="0"
     inkscape:current-layer="svg7" />
  <defs
     id="defs3">
    <style
       id="current-color-scheme"
       type="text/css">
   .ColorScheme-Text { color:#d3dae3; } .ColorScheme-Highlight { color:#5294e2; }
  </style>
  </defs>
  <path
     style="color:#d3dae3;fill:currentColor;stroke-width:0.727283"
     class="ColorScheme-Text"
     d="M 11.08101,3.6455396 C 10.905799,3.6463578 10.743859,3.7014018 10.592366,3.8088942 10.20895,4.0825708 9.4099839,4.3759204 8.0000004,4.3770841 6.5900168,4.3770841 5.7910578,4.0825708 5.4076342,3.8088942 5.2561266,3.7014018 5.1108658,3.649001 4.9346161,3.649801 4.7583664,3.6505283 4.5551266,3.6977654 4.3479601,3.8088942 3.5934767,4.2063544 2.8998918,5.5078637 2.5226501,7.1953057 2.2010747,8.6287076 2.0823553,10.588881 2.2740671,11.377183 c 0.1669696,0.67761 0.455491,0.977287 0.9687637,0.977287 0.7606653,-0.01309 1.7164311,-0.859867 2.3224761,-2.000028 0.4383334,-0.6312094 1.4549705,-0.9181594 2.4346935,-0.8863764 0.9796502,-0.03418 1.9962871,0.255167 2.4346936,0.8863764 0.606045,1.140161 1.561811,1.98701 2.322476,2.000028 0.513287,0 0.801779,-0.299677 0.968763,-0.977287 C 13.917645,10.588881 13.798923,8.6287076 13.47735,7.1953057 13.100116,5.5078637 12.406523,4.2063544 11.65204,3.8088942 11.444874,3.698129 11.256222,3.6447214 11.08101,3.6455396 Z M 5.1150164,5.8316501 h 0.7216011 v 0.727283 h 0.7201806 v 0.727283 H 5.8366175 v 0.727283 H 5.1150164 V 7.2862161 H 4.3934153 v -0.727283 h 0.7216011 z m 5.4091676,0 c 0.199202,0 0.3608,0.1628386 0.3608,0.3636415 0,0.2008756 -0.161598,0.3636415 -0.3608,0.3636415 -0.199203,0 -0.35938,-0.1627659 -0.359381,-0.3636415 0,-0.2008029 0.160178,-0.3636415 0.359381,-0.3636415 z m -0.7201807,0.727283 c 0.1992027,0 0.3607997,0.1628387 0.3607997,0.3636415 0,0.2008756 -0.161597,0.3636415 -0.3607997,0.3636415 -0.1991955,0 -0.3608007,-0.1627659 -0.3608007,-0.3636415 0,-0.2008028 0.1616052,-0.3636415 0.3608007,-0.3636415 z m 1.4417817,0 c 0.199196,0 0.3608,0.1628387 0.3608,0.3636415 0,0.2008756 -0.161604,0.3636415 -0.3608,0.3636415 -0.199203,0 -0.360801,-0.1627659 -0.360801,-0.3636415 0,-0.2008028 0.161598,-0.3636415 0.360801,-0.3636415 z m -0.721601,0.727283 c 0.199202,0 0.3608,0.1628387 0.3608,0.3636415 0,0.2008756 -0.161598,0.3636415 -0.3608,0.3636415 -0.199203,0 -0.359381,-0.1627659 -0.359381,-0.3636415 0,-0.2008028 0.160178,-0.3636415 0.359381,-0.3636415 z"
     id="path5"
     inkscape:connector-curvature="0" />
</svg>

<svg xmlns="http://www.w3.org/2000/svg" width="22" height="22" viewBox="0 0 16 16" version="1.1" id="svg7"><defs id="defs3"><style id="current-color-scheme" type="text/css"></style></defs><path d="M11.081 3.646a.834.834 0 0 0-.489.163c-.383.274-1.182.567-2.592.568-1.41 0-2.209-.294-2.592-.568a.772.772 0 0 0-.473-.16c-.177.002-.38.049-.587.16-.755.397-1.448 1.699-1.825 3.386-.322 1.434-.44 3.394-.249 4.182.167.678.456.977.969.977.76-.013 1.716-.86 2.322-2 .439-.63 1.455-.918 2.435-.886.98-.034 1.996.255 2.435.886.606 1.14 1.562 1.987 2.322 2 .513 0 .802-.3.969-.977.192-.788.073-2.748-.249-4.182-.377-1.687-1.07-2.989-1.825-3.386a1.205 1.205 0 0 0-.571-.163zM5.115 5.832h.722v.727h.72v.727h-.72v.727h-.722v-.727h-.722V6.56h.722zm5.41 0c.198 0 .36.162.36.363 0 .201-.162.364-.36.364-.2 0-.36-.163-.36-.364 0-.2.16-.363.36-.363zm-.721.727c.2 0 .36.163.36.364 0 .2-.16.363-.36.363-.2 0-.36-.163-.36-.363 0-.201.16-.364.36-.364zm1.442 0c.199 0 .36.163.36.364 0 .2-.161.363-.36.363-.2 0-.361-.163-.361-.363 0-.201.162-.364.36-.364zm-.722.727c.2 0 .361.163.361.364 0 .2-.162.363-.36.363-.2 0-.36-.162-.36-.363 0-.2.16-.364.36-.364z" id="path5" color="#d3dae3" fill="currentColor" stroke-width=".727"/></svg>
